src/assets/filled/Wanchain1.svg

<?xml version="1.0" encoding="UTF-8"?>
<svg width="24" height="24" viewBox="0 0 24 24" xmlns="http://www.w3.org/2000/svg">
 <path d="m12 2c-5.52 0-10 4.48-10 10s4.48 10 10 10 10-4.48 10-10-4.48-10-10-10zm2.67 14.43-2.25 1.5c-0.13 0.08-0.27 0.13-0.42 0.13s-0.29-0.04-0.42-0.13l-2.25-1.5c-0.34-0.23-0.44-0.7-0.21-1.04 0.23-0.35 0.7-0.44 1.04-0.21l1.83 1.22 1.83-1.22c0.34-0.23 0.81-0.14 1.04 0.21 0.24 0.35 0.15 0.81-0.19 1.04zm1.83-3.44c0 0.78-0.85 1.26-1.51 0.86l-2.47-1.48c-0.32-0.19-0.71-0.19-1.03 0l-2.47 1.48c-0.67 0.4-1.51-0.08-1.51-0.86v-3.83c0-0.34 0.18001-0.65999 0.46001-0.83999l3.5-2.22c0.33-0.21 0.74-0.21 1.07 0l3.5 2.22c0.29 0.18 0.46 0.49999 0.46 0.83999v3.83z"/>
</svg>

<svg width="24" height="24" viewBox="0 0 24 24"  xmlns="http://www.w3.org/2000/svg">
<path d="M12 2C6.48 2 2 6.48 2 12C2 17.52 6.48 22 12 22C17.52 22 22 17.52 22 12C22 6.48 17.52 2 12 2ZM14.67 16.43L12.42 17.93C12.29 18.01 12.15 18.06 12 18.06C11.85 18.06 11.71 18.02 11.58 17.93L9.33 16.43C8.99 16.2 8.89 15.73 9.12 15.39C9.35 15.04 9.82 14.95 10.16 15.18L11.99 16.4L13.82 15.18C14.16 14.95 14.63 15.04 14.86 15.39C15.1 15.74 15.01 16.2 14.67 16.43ZM16.5 12.99C16.5 13.77 15.65 14.25 14.99 13.85L12.52 12.37C12.2 12.18 11.81 12.18 11.49 12.37L9.02 13.85C8.35 14.25 7.50999 13.77 7.50999 12.99V9.16C7.50999 8.82 7.69 8.50001 7.97 8.32001L11.47 6.10001C11.8 5.89001 12.21 5.89001 12.54 6.10001L16.04 8.32001C16.33 8.50001 16.5 8.82 16.5 9.16V12.99Z" />
</svg>
